X:57
T:Railway Hornpipe, The
R:Hornpipe
S:John Moore's Book 2
Z:Transcribed by Edmund Spriggs 04/2021
%%VWML: Moore1-4494-p43-0
F:http://www.vwml.org/record/Moore2/4494/p43
M:C
L:1/8
K:G
d2|g2 ((3fed) ((3edc) ((3BAG)|FGAB cedc|Bdgf ebag|fa ((3gfe)d2 ef|
g2 ((3fed) ((3edc) ((3BAG)|FGAB cedc|Bdgf ebag|g2b2g2:|
|:defg defg|agfg agfe|dbca BgAf|da ((3gfe) d2ef|
g2 ((3fed) ((3edc) ((3BAG)|FGAB cedc|Bdgf ebaf|g2b2g2:|

